X: 40863
T: Tree Gap
R: reel
M: 4/4
K: Amixolydian
|:c3e dcBd|cAAB AGEF|G2GF GF(D2|D)EED EFAB|
c3e dcBd|cAAB AGEF|G2DG A~B3|BcdB cAA2:|
|:cA~A2 eA~A2|aAgA eAcA|BGGF GFD=C|B,=CDE FGAB|
cA~A2 eA~A2|aAgA eAcA|BGGF GABd|cedB cAA2:|

